src/components/ae-icon/icons/card.svg

<?xml version="1.0" encoding="UTF-8"?>
<svg width="24px" height="24px" viewBox="0 0 24 24" version="1.1" xmlns="http://www.w3.org/2000/svg" xmlns:xlink="http://www.w3.org/1999/xlink">
    <!-- Generator: Sketch 52.1 (67048) - http://www.bohemiancoding.com/sketch -->
    <title>atoms/icons/ui/card</title>
    <desc>Created with Sketch.</desc>
    <defs>
        <path d="M22,9 L22,6 C22,5.44771525 21.5522847,5 21,5 L3,5 C2.44771525,5 2,5.44771525 2,6 L2,9 L22,9 Z M22,11 L2,11 L2,18 C2,18.5522847 2.44771525,19 3,19 L21,19 C21.5522847,19 22,18.5522847 22,18 L22,11 Z M3,3 L21,3 C22.6568542,3 24,4.34314575 24,6 L24,18 C24,19.6568542 22.6568542,21 21,21 L3,21 C1.34314575,21 2.22044605e-16,19.6568542 0,18 L0,6 C-2.22044605e-16,4.34314575 1.34314575,3 3,3 Z" id="path-1"></path>
    </defs>
    <g id="atoms/icons/ui/card" stroke="none" stroke-width="1" fill="none" fill-rule="evenodd">
        <mask id="mask-2" fill="white">
            <use xlink:href="#path-1"></use>
        </mask>
        <use id="Combined-Shape" fill="#000000" xlink:href="#path-1"></use>
    </g>
</svg>

<svg width="24" height="24" xmlns="http://www.w3.org/2000/svg" xmlns:xlink="http://www.w3.org/1999/xlink"><defs><path d="M22 9V6a1 1 0 0 0-1-1H3a1 1 0 0 0-1 1v3h20zm0 2H2v7a1 1 0 0 0 1 1h18a1 1 0 0 0 1-1v-7zM3 3h18a3 3 0 0 1 3 3v12a3 3 0 0 1-3 3H3a3 3 0 0 1-3-3V6a3 3 0 0 1 3-3z" id="a"/></defs><use fill="#000" xlink:href="#a" fill-rule="evenodd"/></svg>
